happy-orphanages/logo.svg

<svg xmlns="http://www.w3.org/2000/svg" width="240" height="74" fill="none" style=""><rect id="backgroundrect" width="100%" height="100%" x="0" y="0" fill="none" stroke="none"/>
<g class="currentLayer" style=""><title>Layer 1</title><path fill-rule="evenodd" clip-rule="evenodd" d="M105.488,23.33585057630539 C103.168,23.33585057630539 100.414,23.82775057630539 97.4059,27.31565057630539 V17.554550576305388 C97.4059,15.088650576305389 95.4046,13.08275057630539 92.9443,13.08275057630539 C90.484,13.08275057630539 88.4827,15.088650576305389 88.4827,17.554550576305388 V49.38695057630539 C88.4827,51.85275057630539 90.484,53.858650576305386 92.9443,53.858650576305386 C95.4046,53.858650576305386 97.4059,51.85275057630539 97.4059,49.38695057630539 V37.03215057630539 C97.4059,33.48035057630539 99.0886,31.51915057630539 102.154,31.51915057630539 C105.156,31.51915057630539 106.737,33.422850576305386 106.737,37.03215057630539 V49.38695057630539 C106.737,51.85275057630539 108.738,53.858650576305386 111.199,53.858650576305386 C113.659,53.858650576305386 115.66,51.85275057630539 115.66,49.38695057630539 V34.43855057630539 C115.654,27.48815057630539 111.855,23.33585057630539 105.488,23.33585057630539 zM131.111,23.553150576305388 C127.478,23.553150576305388 124.597,24.02585057630539 121.773,25.08635057630539 C120.307,25.63575057630539 119.326,27.05385057630539 119.326,28.612650576305388 C119.326,30.69515057630539 120.977,32.324150576305385 123.086,32.324150576305385 C123.52,32.324150576305385 123.883,32.26025057630539 124.38,32.09415057630539 C126.095,31.55755057630539 127.905,31.30205057630539 129.925,31.30205057630539 C134.718,31.30205057630539 135.738,33.95315057630539 135.751,36.19545057630539 C134.087,35.65245057630539 131.99,35.15415057630539 129.065,35.15415057630539 C121.442,35.15415057630539 117.069,38.648450576305386 117.069,44.74925057630539 V44.85785057630539 C117.069,50.370850576305386 121.2,54.07605057630539 127.344,54.07605057630539 C130.805,54.07605057630539 133.578,53.021950576305386 135.789,50.86275057630539 C136.165,52.44065057630539 137.676,53.86515057630539 139.996,53.86515057630539 C142.437,53.86515057630539 144.349,51.97425057630539 144.349,49.55955057630539 V36.38065057630539 C144.349,32.23475057630539 143.266,29.04065057630539 141.118,26.89415057630539 C138.9,24.67745057630539 135.534,23.553150576305388 131.111,23.553150576305388 zM129.817,47.66865057630539 C127.287,47.66865057630539 125.719,46.46765057630539 125.719,44.53205057630539 V44.42345057630539 C125.719,42.11725057630539 127.644,40.80135057630539 131.003,40.80135057630539 C132.723,40.80135057630539 134.438,41.13985057630539 135.859,41.75315057630539 V42.97325057630539 C135.859,45.73305057630539 133.374,47.66865057630539 129.817,47.66865057630539 zM156.306,27.39275057630539 C158.613,24.66495057630539 161.456,23.33615057630539 164.974,23.33615057630539 C171.686,23.33615057630539 178.474,28.59365057630539 178.474,38.64875057630539 V38.75735057630539 C178.474,43.38875057630539 177.053,47.31115057630539 174.369,50.10915057630539 C171.915,52.67085057630539 168.582,54.07625057630539 164.974,54.07625057630539 C161.501,54.07625057630539 158.741,52.88805057630539 156.351,50.35835057630539 V58.02415057630539 C156.351,60.48995057630539 154.349,62.495850576305386 151.889,62.495850576305386 C149.429,62.495850576305386 147.427,60.48995057630539 147.427,58.02415057630539 V28.02515057630539 C147.427,25.559250576305388 149.429,23.55335057630539 151.889,23.55335057630539 C154.139,23.55335057630539 156,25.22715057630539 156.306,27.39275057630539 zM169.557,38.64875057630539 C169.557,34.31115057630539 166.683,31.03395057630539 162.871,31.03395057630539 C159.034,31.03395057630539 156.242,34.23445057630539 156.242,38.64875057630539 V38.75735057630539 C156.242,43.17155057630539 159.028,46.37205057630539 162.871,46.37205057630539 C166.746,46.37205057630539 169.557,43.17155057630539 169.557,38.75735057630539 V38.64875057630539 zM198.08,23.33615057630539 C194.561,23.33615057630539 191.719,24.66495057630539 189.411,27.39275057630539 C189.105,25.22715057630539 187.244,23.55335057630539 184.994,23.55335057630539 C182.534,23.55335057630539 180.533,25.559250576305388 180.533,28.02515057630539 V58.02415057630539 C180.533,60.48995057630539 182.534,62.495850576305386 184.994,62.495850576305386 C187.455,62.495850576305386 189.456,60.48995057630539 189.456,58.02415057630539 V50.35835057630539 C191.846,52.88805057630539 194.606,54.07625057630539 198.08,54.07625057630539 C201.687,54.07625057630539 205.021,52.67085057630539 207.475,50.10915057630539 C210.158,47.31115057630539 211.579,43.38875057630539 211.579,38.75735057630539 V38.64875057630539 C211.579,28.59365057630539 204.791,23.33615057630539 198.08,23.33615057630539 zM195.976,31.03395057630539 C199.788,31.03395057630539 202.662,34.31115057630539 202.662,38.64875057630539 V38.75735057630539 C202.662,43.17155057630539 199.852,46.37205057630539 195.976,46.37205057630539 C192.133,46.37205057630539 189.348,43.17155057630539 189.348,38.75735057630539 V38.64875057630539 C189.348,34.23445057630539 192.139,31.03395057630539 195.976,31.03395057630539 zM231.485,26.92625057630539 C232.313,24.71585057630539 233.792,23.553250576305388 235.761,23.553250576305388 C238.139,23.553250576305388 240.006,25.37385057630539 240,27.68645057630539 C240,28.35715057630539 239.783,29.32815057630539 239.592,29.77535057630539 L229.528,53.99945057630539 C226.998,60.13845057630539 224.359,62.31685057630539 219.445,62.31685057630539 C217.711,62.31685057630539 216.379,62.08685057630539 214.849,61.53755057630539 C213.797,61.15425057630539 212.026,60.157650576305386 212.026,57.79405057630539 C212.026,55.46875057630539 213.855,54.08245057630539 215.62,54.08245057630539 C216.321,54.08245057630539 216.742,54.20385057630539 217.08,54.31885057630539 C217.775,54.53605057630539 218.157,54.62545057630539 218.686,54.62545057630539 C220.025,54.62545057630539 220.586,54.40825057630539 221.261,53.11145057630539 L221.465,52.62595057630539 L211.675,29.89035057630539 C211.452,29.32815057630539 211.216,28.45935057630539 211.216,27.85245057630539 C211.216,25.39945057630539 213.109,23.54685057630539 215.62,23.54685057630539 C217.692,23.54685057630539 219.094,24.63285057630539 219.897,26.868750576305388 L225.793,42.75615057630539 L231.485,26.92625057630539 z" fill="#FFD666" id="svg_1" class="" fill-opacity="1"/><path d="M63.9739 18.7786V44.9078C63.9739 55.2784 55.5339 63.6863 45.1237 63.6863H43.217L33.4805 73.3795C33.0992 73.7594 32.5717 74 31.987 74C31.4467 74 30.9574 73.8037 30.5824 73.4745L30.4172 73.3099L30.4108 73.3036L20.7569 63.6863H18.8439C8.44003 63.6863 0 55.2784 0 44.9078V18.7786C0 8.40794 8.44003 0 18.8503 0H45.1237C55.5339 0 63.9739 8.40794 63.9739 18.7786Z" fill="#FFD666" id="svg_2"/><path d="M14.895 36.197C13.0392 36.197 11.9814 38.3036 13.0582 39.8248C17.2449 45.7501 24.1677 49.6133 31.99 49.6133C39.8123 49.6133 46.7289 45.7437 50.9155 39.8248C51.9923 38.3036 50.9345 36.197 49.0787 36.197H14.895Z" fill="white" id="svg_3"/><path d="M25.764 27.2298H14.5658V21.6036C14.5658 18.4977 17.074 15.9774 20.1649 15.9774C23.2558 15.9774 25.764 18.4977 25.764 21.6036V27.2298Z" fill="white" id="svg_4"/><path d="M49.4148 27.2298H38.2166V21.6036C38.2166 18.4977 40.7248 15.9774 43.8157 15.9774C46.9066 15.9774 49.4148 18.4977 49.4148 21.6036V27.2298Z" fill="white" id="svg_5"/></g></svg>

xmlns:xlink="http://www.w3.org/1999/xlink" x="0px" y="0px"
	 viewBox="0 0 240 74" style="enable-background:new 0 0 240 74;" xml:space="preserve">
<style type="text/css">
	.st0{fill:none;}
	.st1{fill-rule:evenodd;clip-rule:evenodd;fill:#FFD666;}
	.st2{fill:#FFD666;}
</style>
<rect id="backgroundrect" class="st0" width="240" height="74"/>
<g>
	<path id="svg_1" class="st1" d="M105.5,23.3c-2.3,0-5.1,0.5-8.1,4v-9.8c0-2.5-2-4.5-4.5-4.5c-2.5,0-4.5,2-4.5,4.5v31.8
		c0,2.5,2,4.5,4.5,4.5c2.5,0,4.5-2,4.5-4.5V37c0-3.6,1.7-5.5,4.7-5.5c3,0,4.6,1.9,4.6,5.5v12.4c0,2.5,2,4.5,4.5,4.5
		c2.5,0,4.5-2,4.5-4.5V34.4C115.7,27.5,111.9,23.3,105.5,23.3z M131.1,23.6c-3.6,0-6.5,0.5-9.3,1.5c-1.5,0.5-2.4,2-2.4,3.5
		c0,2.1,1.7,3.7,3.8,3.7c0.4,0,0.8-0.1,1.3-0.2c1.7-0.5,3.5-0.8,5.5-0.8c4.8,0,5.8,2.7,5.8,4.9c-1.7-0.5-3.8-1-6.7-1
		c-7.6,0-12,3.5-12,9.6v0.1c0,5.5,4.1,9.2,10.3,9.2c3.5,0,6.2-1.1,8.4-3.2c0.4,1.6,1.9,3,4.2,3c2.4,0,4.4-1.9,4.4-4.3V36.4
		c0-4.1-1.1-7.3-3.2-9.5C138.9,24.7,135.5,23.6,131.1,23.6z M129.8,47.7c-2.5,0-4.1-1.2-4.1-3.1v-0.1c0-2.3,1.9-3.6,5.3-3.6
		c1.7,0,3.4,0.3,4.9,1V43C135.9,45.7,133.4,47.7,129.8,47.7z M156.3,27.4c2.3-2.7,5.1-4.1,8.7-4.1c6.7,0,13.5,5.3,13.5,15.3v0.1
		c0,4.6-1.4,8.6-4.1,11.4c-2.5,2.6-5.8,4-9.4,4c-3.5,0-6.2-1.2-8.6-3.7V58c0,2.5-2,4.5-4.5,4.5c-2.5,0-4.5-2-4.5-4.5V28
		c0-2.5,2-4.5,4.5-4.5C154.1,23.6,156,25.2,156.3,27.4z M169.6,38.6c0-4.3-2.9-7.6-6.7-7.6c-3.8,0-6.6,3.2-6.6,7.6v0.1
		c0,4.4,2.8,7.6,6.6,7.6c3.9,0,6.7-3.2,6.7-7.6V38.6z M198.1,23.3c-3.5,0-6.4,1.3-8.7,4.1c-0.3-2.2-2.2-3.8-4.4-3.8
		c-2.5,0-4.5,2-4.5,4.5v30c0,2.5,2,4.5,4.5,4.5c2.5,0,4.5-2,4.5-4.5v-7.7c2.4,2.5,5.2,3.7,8.6,3.7c3.6,0,6.9-1.4,9.4-4
		c2.7-2.8,4.1-6.7,4.1-11.4v-0.1C211.6,28.6,204.8,23.3,198.1,23.3z M196,31c3.8,0,6.7,3.3,6.7,7.6v0.1c0,4.4-2.8,7.6-6.7,7.6
		c-3.8,0-6.6-3.2-6.6-7.6v-0.1C189.3,34.2,192.1,31,196,31z M231.5,26.9c0.8-2.2,2.3-3.4,4.3-3.4c2.4,0,4.2,1.8,4.2,4.1
		c0,0.7-0.2,1.6-0.4,2.1L229.5,54c-2.5,6.1-5.2,8.3-10.1,8.3c-1.7,0-3.1-0.2-4.6-0.8c-1.1-0.4-2.8-1.4-2.8-3.7
		c0-2.3,1.8-3.7,3.6-3.7c0.7,0,1.1,0.1,1.5,0.2c0.7,0.2,1.1,0.3,1.6,0.3c1.3,0,1.9-0.2,2.6-1.5l0.2-0.5l-9.8-22.7
		c-0.2-0.6-0.5-1.4-0.5-2c0-2.5,1.9-4.3,4.4-4.3c2.1,0,3.5,1.1,4.3,3.3l5.9,15.9L231.5,26.9z"/>
	<path class="st2" d="M45.1,0H18.9C8.4,0,0,8.4,0,18.8v26.1c0,10.4,8.4,18.8,18.8,18.8h1.9l9.7,9.6l0,0l0.2,0.2
		C31,73.8,31.4,74,32,74c0.6,0,1.1-0.2,1.5-0.6l9.7-9.7h1.9c10.4,0,18.9-8.4,18.9-18.8V18.8C64,8.4,55.5,0,45.1,0z M38.2,21.6
		c0-3.1,2.5-5.6,5.6-5.6c3.1,0,5.6,2.5,5.6,5.6v5.6H38.2V21.6z M14.6,21.6c0-3.1,2.5-5.6,5.6-5.6c3.1,0,5.6,2.5,5.6,5.6v5.6H14.6
		V21.6z M50.9,39.8c-4.2,5.9-11.1,9.8-18.9,9.8c-7.8,0-14.7-3.9-18.9-9.8c-1.1-1.5,0-3.6,1.8-3.6h34.2C50.9,36.2,52,38.3,50.9,39.8z
		"/>
</g>
</svg>
